src/assets/filled/Designtools.svg

<svg width="24" height="24" viewBox="0 0 24 24"  xmlns="http://www.w3.org/2000/svg">
<path d="M21.0401 13.2799L20.1201 12.3799L12.3701 20.1199L13.3001 21.0499C14.0801 21.8299 14.8901 22.2199 15.6901 22.2199C16.4901 22.2199 17.3001 21.8299 18.0801 21.0499L21.0401 18.0899C22.6301 16.4899 22.6301 14.8799 21.0401 13.2799Z" />
<path d="M10.69 2.92994C9.12001 1.35994 7.47001 1.35994 5.90001 2.92994L2.93001 5.88994C1.37001 7.45994 1.37001 9.10994 2.93001 10.6799L3.85001 11.5999L11.6 3.84994L10.69 2.92994Z" />
<path d="M21.8101 3.94009C20.5001 7.21009 17.5101 11.4801 14.6601 14.2701C14.2501 11.6901 12.1901 9.67009 9.59009 9.31009C12.3901 6.45009 16.6901 3.42009 19.9701 2.10009C20.5501 1.88009 21.1301 2.05009 21.4901 2.41009C21.8701 2.79009 22.0501 3.36009 21.8101 3.94009Z" />
<path d="M13.7801 15.09C13.5801 15.26 13.3801 15.43 13.1801 15.59L11.3901 17.02C11.3901 16.99 11.3801 16.95 11.3801 16.91C11.2401 15.84 10.7401 14.85 9.93012 14.04C9.11012 13.22 8.09012 12.72 6.97012 12.58C6.94012 12.58 6.90012 12.57 6.87012 12.57L8.32012 10.74C8.46012 10.56 8.61012 10.39 8.77012 10.21L9.45012 10.3C11.6001 10.6 13.3301 12.29 13.6701 14.43L13.7801 15.09Z" />
<path d="M10.43 17.6198C10.43 18.7198 10.01 19.7698 9.21001 20.5598C8.60001 21.1798 7.78001 21.5998 6.78001 21.7198L4.33001 21.9898C2.99001 22.1398 1.84001 20.9898 1.99001 19.6398L2.26001 17.1798C2.50001 14.9898 4.33001 13.5898 6.27001 13.5498C6.46001 13.5398 6.67001 13.5498 6.87001 13.5698C7.72001 13.6798 8.54001 14.0698 9.23001 14.7498C9.90001 15.4198 10.28 16.2098 10.39 17.0398C10.41 17.2398 10.43 17.4298 10.43 17.6198Z" />
</svg>

<?xml version="1.0" encoding="UTF-8"?>
<svg width="24" height="24" viewBox="0 0 24 24" xmlns="http://www.w3.org/2000/svg">
 <path d="m21.04 13.28-0.92-0.9-7.75 7.74 0.93 0.93c0.78 0.78 1.59 1.17 2.39 1.17s1.61-0.39 2.39-1.17l2.96-2.96c1.59-1.6 1.59-3.21 0-4.81z"/>
 <path d="m10.69 2.9299c-1.57-1.57-3.22-1.57-4.79 0l-2.97 2.96c-1.56 1.57-1.56 3.22 0 4.79l0.92 0.92 7.75-7.75-0.91-0.92z"/>
 <path d="m21.81 3.9401c-1.31 3.27-4.3 7.54-7.15 10.33-0.41-2.58-2.47-4.6-5.07-4.96 2.8-2.86 7.1-5.89 10.38-7.21 0.58-0.22 1.16-0.05 1.52 0.31 0.38 0.38 0.56 0.95 0.32 1.53z"/>
 <path d="m13.78 15.09c-0.2 0.17-0.4 0.34-0.6 0.5l-1.79 1.43c0-0.03-0.01-0.07-0.01-0.11-0.14-1.07-0.64-2.06-1.45-2.87-0.82-0.82-1.84-1.32-2.96-1.46-0.03 0-0.07-0.01-0.1-0.01l1.45-1.83c0.14-0.18 0.29-0.35 0.45-0.53l0.68 0.09c2.15 0.3 3.88 1.99 4.22 4.13l0.11 0.66z"/>
 <path d="m10.43 17.62c0 1.1-0.42 2.15-1.22 2.94-0.61 0.62-1.43 1.04-2.43 1.16l-2.45 0.27c-1.34 0.15-2.49-1-2.34-2.35l0.27-2.46c0.24-2.19 2.07-3.59 4.01-3.63 0.19-0.01 0.4 0 0.6 0.02 0.85 0.11 1.67 0.5 2.36 1.18 0.67 0.67 1.05 1.46 1.16 2.29 0.02 0.2 0.04 0.39 0.04 0.58z"/>
</svg>
